Numix-Circle/48x48/apps/billard-gl.svg

<?xml version="1.0" encoding="UTF-8" standalone="no"?>
<svg
   xmlns:dc="http://purl.org/dc/elements/1.1/"
   xmlns:cc="http://creativecommons.org/ns#"
   xmlns:rdf="http://www.w3.org/1999/02/22-rdf-syntax-ns#"
   xmlns:svg="http://www.w3.org/2000/svg"
   xmlns="http://www.w3.org/2000/svg"
   xmlns:xlink="http://www.w3.org/1999/xlink"
   xmlns:sodipodi="http://sodipodi.sourceforge.net/DTD/sodipodi-0.dtd"
   xmlns:inkscape="http://www.inkscape.org/namespaces/inkscape"
   viewBox="0 0 48 48"
   id="svg2"
   version="1.1"
   inkscape:version="0.48.4 r9939"
   width="100%"
   height="100%"
   sodipodi:docname="billard-gl.svg">
  <metadata
     id="metadata75">
    <rdf:RDF>
      <cc:Work
         rdf:about="">
        <dc:format>image/svg+xml</dc:format>
        <dc:type
           rdf:resource="http://purl.org/dc/dcmitype/StillImage" />
      </cc:Work>
    </rdf:RDF>
  </metadata>
  <sodipodi:namedview
     pagecolor="#ffffff"
     bordercolor="#666666"
     borderopacity="1"
     objecttolerance="10"
     gridtolerance="10"
     guidetolerance="10"
     inkscape:pageopacity="0"
     inkscape:pageshadow="2"
     inkscape:window-width="879"
     inkscape:window-height="612"
     id="namedview73"
     showgrid="false"
     inkscape:zoom="1.7383042"
     inkscape:cx="-114.65434"
     inkscape:cy="48.745675"
     inkscape:window-x="252"
     inkscape:window-y="196"
     inkscape:window-maximized="0"
     inkscape:current-layer="svg2" />
  <defs
     id="defs4">
    <linearGradient
       id="linearGradient3764"
       x1="1"
       x2="47"
       gradientUnits="userSpaceOnUse"
       gradientTransform="matrix(0,-1,1,0,-1.5e-6,47.999998)">
      <stop
         stop-color="#e7a739"
         stop-opacity="1"
         id="stop7" />
      <stop
         offset="1"
         stop-color="#e9af4b"
         stop-opacity="1"
         id="stop9" />
    </linearGradient>
    <clipPath
       id="clipPath-889973457">
      <g
         transform="translate(0,-1004.3622)"
         id="g12">
        <path
           d="m -24 13 c 0 1.105 -0.672 2 -1.5 2 -0.828 0 -1.5 -0.895 -1.5 -2 0 -1.105 0.672 -2 1.5 -2 0.828 0 1.5 0.895 1.5 2 z"
           transform="matrix(15.333333,0,0,11.5,414.99999,878.8622)"
           fill="#1890d0"
           id="path14" />
      </g>
    </clipPath>
    <clipPath
       id="clipPath-901314624">
      <g
         transform="translate(0,-1004.3622)"
         id="g17">
        <path
           d="m -24 13 c 0 1.105 -0.672 2 -1.5 2 -0.828 0 -1.5 -0.895 -1.5 -2 0 -1.105 0.672 -2 1.5 -2 0.828 0 1.5 0.895 1.5 2 z"
           transform="matrix(15.333333,0,0,11.5,414.99999,878.8622)"
           fill="#1890d0"
           id="path19" />
      </g>
    </clipPath>
    <linearGradient
       inkscape:collect="always"
       xlink:href="#linearGradient3764"
       id="linearGradient3111"
       gradientUnits="userSpaceOnUse"
       gradientTransform="matrix(0,-1,1,0,-1.5e-6,47.999998)"
       x1="1"
       x2="47" />
    <linearGradient
       inkscape:collect="always"
       xlink:href="#linearGradient3764"
       id="linearGradient3119"
       gradientUnits="userSpaceOnUse"
       gradientTransform="matrix(0,-1,1,0,-1.5e-6,47.999998)"
       x1="1"
       x2="47" />
    <linearGradient
       inkscape:collect="always"
       xlink:href="#linearGradient3764"
       id="linearGradient3127"
       gradientUnits="userSpaceOnUse"
       gradientTransform="matrix(0,-1,1,0,-1.5e-6,47.999998)"
       x1="1"
       x2="47" />
    <linearGradient
       inkscape:collect="always"
       xlink:href="#linearGradient3764"
       id="linearGradient3130"
       gradientUnits="userSpaceOnUse"
       gradientTransform="matrix(0,-1,1,0,-1.5e-6,47.999998)"
       x1="1"
       x2="47" />
    <linearGradient
       inkscape:collect="always"
       xlink:href="#linearGradient3764"
       id="linearGradient3133"
       gradientUnits="userSpaceOnUse"
       gradientTransform="matrix(0,-1,1,0,-1.5e-6,47.999998)"
       x1="1"
       x2="47" />
    <linearGradient
       inkscape:collect="always"
       xlink:href="#linearGradient3764"
       id="linearGradient3136"
       gradientUnits="userSpaceOnUse"
       gradientTransform="matrix(0,-1,1,0,-1.5e-6,47.999998)"
       x1="1"
       x2="47" />
    <linearGradient
       inkscape:collect="always"
       xlink:href="#linearGradient3764"
       id="linearGradient3139"
       gradientUnits="userSpaceOnUse"
       gradientTransform="matrix(0,-1,1,0,-1.5e-6,47.999998)"
       x1="1"
       x2="47" />
    <linearGradient
       inkscape:collect="always"
       xlink:href="#linearGradient3764"
       id="linearGradient3142"
       gradientUnits="userSpaceOnUse"
       gradientTransform="matrix(0,-1,1,0,-1.5e-6,47.999998)"
       x1="1"
       x2="47" />
    <linearGradient
       inkscape:collect="always"
       xlink:href="#linearGradient3764"
       id="linearGradient3151"
       gradientUnits="userSpaceOnUse"
       gradientTransform="matrix(0,-1,1,0,-1.5e-6,47.999998)"
       x1="1"
       x2="47" />
    <linearGradient
       inkscape:collect="always"
       xlink:href="#linearGradient3764"
       id="linearGradient3154"
       gradientUnits="userSpaceOnUse"
       gradientTransform="matrix(0,-1,1,0,-1.5e-6,47.999998)"
       x1="1"
       x2="47" />
    <linearGradient
       inkscape:collect="always"
       xlink:href="#linearGradient3764"
       id="linearGradient3161"
       gradientUnits="userSpaceOnUse"
       gradientTransform="matrix(0,-1,1,0,-1.5e-6,47.999998)"
       x1="1"
       x2="47" />
    <linearGradient
       inkscape:collect="always"
       xlink:href="#linearGradient3764"
       id="linearGradient3164"
       gradientUnits="userSpaceOnUse"
       gradientTransform="matrix(0,-1,1,0,-1.5e-6,47.999998)"
       x1="1"
       x2="47" />
    <linearGradient
       inkscape:collect="always"
       xlink:href="#linearGradient3764"
       id="linearGradient3171"
       gradientUnits="userSpaceOnUse"
       gradientTransform="matrix(0,-1,1,0,-1.5e-6,47.999998)"
       x1="1"
       x2="47" />
  </defs>
  <g
     id="g21">
    <path
       d="m 36.31 5 c 5.859 4.062 9.688 10.831 9.688 18.5 c 0 12.426 -10.07 22.5 -22.5 22.5 c -7.669 0 -14.438 -3.828 -18.5 -9.688 c 1.037 1.822 2.306 3.499 3.781 4.969 c 4.085 3.712 9.514 5.969 15.469 5.969 c 12.703 0 23 -10.298 23 -23 c 0 -5.954 -2.256 -11.384 -5.969 -15.469 c -1.469 -1.475 -3.147 -2.744 -4.969 -3.781 z m 4.969 3.781 c 3.854 4.113 6.219 9.637 6.219 15.719 c 0 12.703 -10.297 23 -23 23 c -6.081 0 -11.606 -2.364 -15.719 -6.219 c 4.16 4.144 9.883 6.719 16.219 6.719 c 12.703 0 23 -10.298 23 -23 c 0 -6.335 -2.575 -12.06 -6.719 -16.219 z"
       opacity="0.05"
       id="path23" />
    <path
       d="m 41.28 8.781 c 3.712 4.085 5.969 9.514 5.969 15.469 c 0 12.703 -10.297 23 -23 23 c -5.954 0 -11.384 -2.256 -15.469 -5.969 c 4.113 3.854 9.637 6.219 15.719 6.219 c 12.703 0 23 -10.298 23 -23 c 0 -6.081 -2.364 -11.606 -6.219 -15.719 z"
       opacity="0.1"
       id="path25" />
    <path
       d="m 31.25 2.375 c 8.615 3.154 14.75 11.417 14.75 21.13 c 0 12.426 -10.07 22.5 -22.5 22.5 c -9.708 0 -17.971 -6.135 -21.12 -14.75 a 23 23 0 0 0 44.875 -7 a 23 23 0 0 0 -16 -21.875 z"
       opacity="0.2"
       id="path27" />
  </g>
  <path
     style="fill:url(#linearGradient3171);fill-opacity:1"
     d="M 4.375,12 C 2.2397629,15.490394 1,19.608474 1,24 c 0,4.391526 1.2397629,8.509606 3.375,12 l 39.25,0 C 45.760237,32.509606 47,28.391526 47,24 47,19.608474 45.760237,15.490394 43.625,12 z"
     id="path31"
     inkscape:connector-curvature="0"
     sodipodi:nodetypes="csccscc" />
  <g
     id="g33" />
  <path
     style="opacity:0.1;fill:#000000;fill-opacity:1;fill-rule:nonzero;stroke:none"
     inkscape:connector-curvature="0"
     id="path45"
     d="m 35,25 c 0,5.523 -4.477,10 -10,10 -5.523,0 -10,-4.477 -10,-10 0,-5.523 4.477,-10 10,-10 5.523,0 10,4.477 10,10 m 0,0" />
  <use
     style="opacity:0.1"
     height="48"
     width="48"
     y="0"
     x="0"
     id="use47"
     xlink:href="#SVGCleanerId_0"
     transform="translate(1,1)" />
  <use
     style="opacity:0.1"
     height="48"
     width="48"
     y="0"
     x="0"
     id="use49"
     xlink:href="#SVGCleanerId_1"
     transform="translate(1,1)" />
  <path
     style="opacity:0.1;fill:#000000;fill-opacity:1;fill-rule:nonzero;stroke:none"
     d="M 4.40625,12 C 4.2042804,12.329534 3.9981286,12.65978 3.8125,13 l 40.375,0 c -0.185629,-0.34022 -0.39178,-0.670466 -0.59375,-1 z"
     id="path51"
     inkscape:connector-curvature="0"
     sodipodi:nodetypes="ccccc" />
  <path
     style="fill:#f9f9f9;fill-opacity:1;fill-rule:nonzero;stroke:none"
     d="M 4.375 36 C 8.4161849 42.605977 15.688526 47 24 47 C 32.311474 47 39.583815 42.605977 43.625 36 L 4.375 36 z "
     id="path67" />
  <path
     style="fill:#f9f9f9;fill-opacity:1;fill-rule:nonzero;stroke:none"
     inkscape:connector-curvature="0"
     id="path61"
     d="m 34,24 c 0,5.523 -4.477,10 -10,10 -5.523,0 -10,-4.477 -10,-10 0,-5.523 4.477,-10 10,-10 5.523,0 10,4.477 10,10 m 0,0" />
  <path
     style="fill:#000000;fill-opacity:1;fill-rule:nonzero;stroke:none"
     inkscape:connector-curvature="0"
     id="SVGCleanerId_0"
     d="m 16.06,27.22 2.262,0 0,-6.461 -2.313,0.48 0,-1.754 2.305,-0.48 2.434,0 0,8.215 2.262,0 0,1.781 -6.941,0 0,-1.781" />
  <path
     style="fill:#000000;fill-opacity:1;fill-rule:nonzero;stroke:none"
     inkscape:connector-curvature="0"
     id="SVGCleanerId_1"
     d="m 30.08,23.617 c 0.637,0.164 1.105,0.461 1.434,0.879 0.316,0.414 0.484,0.938 0.484,1.578 0,0.957 -0.352,1.684 -1.059,2.184 C 30.232,28.754 29.205,29 27.853,29 c -0.48,0 -0.957,-0.039 -1.441,-0.121 -0.477,-0.078 -0.941,-0.195 -1.414,-0.355 l 0,-1.918 c 0.445,0.234 0.898,0.41 1.332,0.527 0.441,0.117 0.887,0.176 1.313,0.176 0.637,0 1.121,-0.113 1.457,-0.344 0.34,-0.227 0.512,-0.559 0.512,-0.98 0,-0.441 -0.176,-0.77 -0.523,-0.996 -0.344,-0.227 -0.855,-0.344 -1.531,-0.344 l -0.957,0 0,-1.602 1,0 c 0.605,0 1.051,-0.098 1.344,-0.293 0.297,-0.195 0.445,-0.496 0.445,-0.895 0,-0.371 -0.145,-0.656 -0.43,-0.859 -0.289,-0.199 -0.691,-0.305 -1.211,-0.305 -0.387,0 -0.777,0.047 -1.172,0.137 -0.391,0.09 -0.785,0.223 -1.176,0.398 l 0,-1.82 c 0.473,-0.137 0.941,-0.242 1.406,-0.309 0.465,-0.066 0.922,-0.102 1.359,-0.102 1.219,0 2.109,0.203 2.707,0.621 0.605,0.406 0.906,1.027 0.906,1.852 0,0.563 -0.145,1.027 -0.43,1.391 -0.289,0.355 -0.707,0.609 -1.27,0.754" />
  <path
     style="fill:#f9f9f9;fill-opacity:1;fill-rule:nonzero;stroke:none"
     d="M 24 1 C 15.688526 1 8.4161849 5.3940234 4.375 12 L 43.625 12 C 39.583815 5.3940234 32.311474 1 24 1 z "
     id="path65" />
  <g
     id="g69">
    <path
       d="m 40.03 7.531 c 3.712 4.084 5.969 9.514 5.969 15.469 0 12.703 -10.297 23 -23 23 c -5.954 0 -11.384 -2.256 -15.469 -5.969 4.178 4.291 10.01 6.969 16.469 6.969 c 12.703 0 23 -10.298 23 -23 0 -6.462 -2.677 -12.291 -6.969 -16.469 z"
       opacity="0.1"
       id="path71" />
  </g>
</svg>

<svg xmlns="http://www.w3.org/2000/svg" xmlns:xlink="http://www.w3.org/1999/xlink" viewBox="0 0 48 48"><defs><clipPath><g transform="translate(0,-1004.3622)"><path d="m -24 13 c 0 1.105 -0.672 2 -1.5 2 -0.828 0 -1.5 -0.895 -1.5 -2 0 -1.105 0.672 -2 1.5 -2 0.828 0 1.5 0.895 1.5 2 z" transform="matrix(15.333333,0,0,11.5,414.99999,878.8622)" fill="#1890d0"/></g></clipPath><clipPath><g transform="translate(0,-1004.3622)"><path d="m -24 13 c 0 1.105 -0.672 2 -1.5 2 -0.828 0 -1.5 -0.895 -1.5 -2 0 -1.105 0.672 -2 1.5 -2 0.828 0 1.5 0.895 1.5 2 z" transform="matrix(15.333333,0,0,11.5,414.99999,878.8622)" fill="#1890d0"/></g></clipPath><linearGradient id="linearGradient3171" gradientUnits="userSpaceOnUse" gradientTransform="matrix(0,-1,1,0,-1.5e-6,47.999998)" x1="1" x2="47"><stop stop-color="#e7a739" stop-opacity="1"/><stop offset="1" stop-color="#e9af4b" stop-opacity="1"/></linearGradient></defs><g><path d="m 36.31 5 c 5.859 4.062 9.688 10.831 9.688 18.5 c 0 12.426 -10.07 22.5 -22.5 22.5 c -7.669 0 -14.438 -3.828 -18.5 -9.688 c 1.037 1.822 2.306 3.499 3.781 4.969 c 4.085 3.712 9.514 5.969 15.469 5.969 c 12.703 0 23 -10.298 23 -23 c 0 -5.954 -2.256 -11.384 -5.969 -15.469 c -1.469 -1.475 -3.147 -2.744 -4.969 -3.781 z m 4.969 3.781 c 3.854 4.113 6.219 9.637 6.219 15.719 c 0 12.703 -10.297 23 -23 23 c -6.081 0 -11.606 -2.364 -15.719 -6.219 c 4.16 4.144 9.883 6.719 16.219 6.719 c 12.703 0 23 -10.298 23 -23 c 0 -6.335 -2.575 -12.06 -6.719 -16.219 z" opacity="0.05"/><path d="m 41.28 8.781 c 3.712 4.085 5.969 9.514 5.969 15.469 c 0 12.703 -10.297 23 -23 23 c -5.954 0 -11.384 -2.256 -15.469 -5.969 c 4.113 3.854 9.637 6.219 15.719 6.219 c 12.703 0 23 -10.298 23 -23 c 0 -6.081 -2.364 -11.606 -6.219 -15.719 z" opacity="0.1"/><path d="m 31.25 2.375 c 8.615 3.154 14.75 11.417 14.75 21.13 c 0 12.426 -10.07 22.5 -22.5 22.5 c -9.708 0 -17.971 -6.135 -21.12 -14.75 a 23 23 0 0 0 44.875 -7 a 23 23 0 0 0 -16 -21.875 z" opacity="0.2"/></g><path d="m 4.375 12 c -2.135 3.49 -3.375 7.608 -3.375 12 c 0 4.392 1.24 8.51 3.375 12 l 39.25 0 c 2.135 -3.49 3.375 -7.608 3.375 -12 0 -4.392 -1.24 -8.51 -3.375 -12 z" fill="url(#linearGradient3171)" fill-opacity="1"/><path d="m 35 25 c 0 5.523 -4.477 10 -10 10 -5.523 0 -10 -4.477 -10 -10 0 -5.523 4.477 -10 10 -10 5.523 0 10 4.477 10 10 m 0 0" opacity="0.1" fill="#000" fill-rule="nonzero" stroke="none" fill-opacity="1"/><use height="48" width="48" xlink:href="#SVGCleanerId_0" transform="translate(1,1)" opacity="0.1"/><use height="48" width="48" xlink:href="#SVGCleanerId_1" transform="translate(1,1)" opacity="0.1"/><path d="m 4.406 12 c -0.202 0.33 -0.408 0.66 -0.594 1 l 40.38 0 c -0.186 -0.34 -0.392 -0.67 -0.594 -1 z" opacity="0.1" fill="#000" fill-rule="nonzero" stroke="none" fill-opacity="1"/><path d="m 4.375 36 c 4.04 6.606 11.314 11 19.625 11 c 8.311 0 15.584 -4.394 19.625 -11 l -39.25 0 z" fill="#f9f9f9" fill-rule="nonzero" stroke="none" fill-opacity="1"/><path d="m 34 24 c 0 5.523 -4.477 10 -10 10 -5.523 0 -10 -4.477 -10 -10 0 -5.523 4.477 -10 10 -10 5.523 0 10 4.477 10 10 m 0 0" fill="#f9f9f9" fill-rule="nonzero" stroke="none" fill-opacity="1"/><path id="SVGCleanerId_0" d="m 16.06 27.22 2.262 0 0 -6.461 -2.313 0.48 0 -1.754 2.305 -0.48 2.434 0 0 8.215 2.262 0 0 1.781 -6.941 0 0 -1.781" fill="#000" fill-rule="nonzero" stroke="none" fill-opacity="1"/><path id="SVGCleanerId_1" d="m 30.08,23.617 c 0.637,0.164 1.105,0.461 1.434,0.879 0.316,0.414 0.484,0.938 0.484,1.578 0,0.957 -0.352,1.684 -1.059,2.184 C 30.232,28.754 29.205,29 27.853,29 c -0.48,0 -0.957,-0.039 -1.441,-0.121 -0.477,-0.078 -0.941,-0.195 -1.414,-0.355 l 0,-1.918 c 0.445,0.234 0.898,0.41 1.332,0.527 0.441,0.117 0.887,0.176 1.313,0.176 0.637,0 1.121,-0.113 1.457,-0.344 0.34,-0.227 0.512,-0.559 0.512,-0.98 0,-0.441 -0.176,-0.77 -0.523,-0.996 -0.344,-0.227 -0.855,-0.344 -1.531,-0.344 l -0.957,0 0,-1.602 1,0 c 0.605,0 1.051,-0.098 1.344,-0.293 0.297,-0.195 0.445,-0.496 0.445,-0.895 0,-0.371 -0.145,-0.656 -0.43,-0.859 -0.289,-0.199 -0.691,-0.305 -1.211,-0.305 -0.387,0 -0.777,0.047 -1.172,0.137 -0.391,0.09 -0.785,0.223 -1.176,0.398 l 0,-1.82 c 0.473,-0.137 0.941,-0.242 1.406,-0.309 0.465,-0.066 0.922,-0.102 1.359,-0.102 1.219,0 2.109,0.203 2.707,0.621 0.605,0.406 0.906,1.027 0.906,1.852 0,0.563 -0.145,1.027 -0.43,1.391 -0.289,0.355 -0.707,0.609 -1.27,0.754" fill="#000" fill-rule="nonzero" stroke="none" fill-opacity="1"/><path d="m 24 1 c -8.311 0 -15.584 4.394 -19.625 11 l 39.25 0 c -4.04 -6.606 -11.314 -11 -19.625 -11 z" fill="#f9f9f9" fill-rule="nonzero" stroke="none" fill-opacity="1"/><g><path d="m 40.03 7.531 c 3.712 4.084 5.969 9.514 5.969 15.469 0 12.703 -10.297 23 -23 23 c -5.954 0 -11.384 -2.256 -15.469 -5.969 4.178 4.291 10.01 6.969 16.469 6.969 c 12.703 0 23 -10.298 23 -23 0 -6.462 -2.677 -12.291 -6.969 -16.469 z" opacity="0.1"/></g></svg>
